X: 2624
T: Banais Mairead
R: strathspey
M: 4/4
K: Adorian
A3c e2Ae|g2dG B3c|A3c e2Ae|e/f/gdB A2AG|A2Ac eAce|Bdgd B3c|A2Ac e2Ae|e/f/gdB A3g||
g2fe e2a2|g2fg BB2g|g2fe e2dB|dedB AA2A|g2fg aegd|e/f/gde cBBB|g2fe e2dB|dedB AA2A||
A2eA A/A/AgA|A/A/Aed B2Bc|A/A/AeA A/A/Agc|egdB A/A/AAG:|

